!!!!SEGMENT: pl-cz--iii-896--003_anonim-partita-es-menuetto.krn
!!!id: 18xx:2492
!!!COM: Anonim
!!!OTL: Partita Es - Menuetto
!!!PDT:
!!!SMS-siglum: PL-CZ
!!!SMS-shelfmark: III-896
!!!NIFC-rismID: 1001012556
!!!URL-scan: http://repozytorium.nifc.pl/skany/pl-cz-nut--iii-896
!!!ONB-nifc: UWAGA: częsci Partity: 1. Allegro molto, 2. Andante, 3. Menuetto, 4. Finale
!!!SMS-variant:
!!!SMS-altvar:
**kern	**dynam	**kern	**dynam	**kern	**dynam	**kern	**dynam	**kern	**dynam	**kern	**dynam
*part6	*part6	*part5	*part5	*part4	*part4	*part3	*part3	*part2	*part2	*part1	*part1
*staff6	*	*staff5	*	*staff4	*	*staff3	*	*staff2	*	*staff1	*
*I"Corno Secondo in Dis	*	*I"Corno Primo in Dis	*	*I"Fagotto Secondo	*	*I"Fagotto Primo	*	*I"Clarinetto Secondo	*	*I"Clarinetto Primo	*
*I'cor 2	*	*I'cor 1	*	*I'fag 2	*	*I'fag 1	*	*I'cl 2	*	*I'cl 1	*
*clefG2	*	*clefG2	*	*clefF4	*	*clefF4	*	*clefG2	*	*clefG2	*
*ITrd5c9	*	*ITrd5c9	*	*	*	*	*	*ITrd1c2	*	*ITrd1c2	*
*k[b-e-a-]	*	*k[b-e-a-]	*	*k[b-e-a-]	*	*k[b-e-a-]	*	*k[b-e-a-]	*	*k[b-e-a-]	*
*M3/4	*	*M3/4	*	*M3/4	*	*M3/4	*	*M3/4	*	*M3/4	*
*>[A,A,B,B,C,C,D,D,A,A,B,B]	*	*>[A,A,B,B,C,C,D,D,A,A,B,B]	*	*>[A,A,B,B,C,C,D,D,A,A,B,B]	*	*>[A,A,B,B,C,C,D,D,A,A,B,B]	*	*>[A,A,B,B,C,C,D,D,A,A,B,B]	*	*>[A,A,B,B,C,C,D,D,A,A,B,B]	*
=1	=1	=1	=1	=1	=1	=1	=1	=1	=1	=1	=1
*>A	*	*>A	*	*>A	*	*>A	*	*>A	*	*>A	*
*	*	*	*	*	*	*	*	*2\right	*	*2\right	*
!LO:TX:a:t=4	!	!LO:TX:a:t=4	!	!LO:TX:t=P:problem:skan 007	!	!LO:TX:t=P:problem:skan 0010	!	!	!	!	!
0.r	.	0.r	.	4C/	.	4C/	.	4ee-\	.	4gg\	.
.	.	.	.	4r	.	4r	.	4ee-\	.	4gg\	.
.	.	.	.	4r	.	4r	.	4ee-\	.	4gg\	.
=2	=2	=2	=2	=2	=2	=2	=2	=2	=2	=2	=2
.	.	.	.	4r	.	4r	.	8ee-\L	.	(>8gg\L	.
.	.	.	.	.	.	.	.	[>8dd\	.	8ff\)	.
.	.	.	.	4G\	.	4G\	.	8dd\]	.	(>8ff\	.
.	.	.	.	.	.	.	.	8cc\J	.	8ee-\J)	.
.	.	.	.	4A-\	.	4A-\	.	4cc\	.	4ee-\	.
=3	=3	=3	=3	=3	=3	=3	=3	=3	=3	=3	=3
.	.	.	.	.	.	.	.	16qqee-/	.	.	.
.	.	.	.	4F\	.	4F\	.	4dd\	.	4ff\	.
.	.	.	.	4G\	.	4G\	.	4cc\	.	4ee-\	.
.	.	.	.	4GG/	.	4GG/	.	4bX\	.	4dd\	.
=4	=4	=4	=4	=4	=4	=4	=4	=4	=4	=4	=4
.	.	.	.	.	.	.	.	.	.	16qqff/	.
.	.	.	.	4C\	.	4C/	.	4cc\	.	8ee-\L	.
.	.	.	.	.	.	.	.	.	.	8dd\J	.
.	.	.	.	4E-\	.	4r	.	4g/	.	4cc\	.
.	.	.	.	4C\	.	4r	.	8e-/L	.	4r	.
.	.	.	.	.	.	.	.	8c/J	.	.	.
=5	=5	=5	=5	=5	=5	=5	=5	=5	=5	=5	=5
4G/	.	4g\	.	4Bn\	.	4d\	.	2.G/	.	2.g/	.
4r	.	4r	.	4B\	.	4d\	.	.	.	.	.
4r	.	4r	.	4c\	.	4e-\	.	.	.	.	.
!	!	!	!	!	!	!LO:LB:g=original	!	!	!	!LO:LB:g=original	!
=6	=6	=6	=6	=6	=6	=6	=6	=6	=6	=6	=6
!	!	!	!	!	!	!	!	!LO:SIC:v:s=2.A	!	!	!
4G/	.	4g\	.	4d\	.	4Bn\	.	2.A-/	.	2.g/	.
4r	.	4r	.	4d\	.	4B\	.	.	.	.	.
4r	.	4r	.	4e-\	.	4c\	.	.	.	.	.
!	!	!	!	!	!	!	!	!LO:LB:g=original	!	!	!
=7	=7	=7	=7	=7	=7	=7	=7	=7	=7	=7	=7
4G/	.	4g\	.	8Bn\L	.	8d\L	.	4G/	.	4g/	.
.	.	.	.	8c\J	.	8e-\J	.	.	.	.	.
!	!	!	!	!LO:LB:g=original	!	!	!	!	!	!	!
4G/	.	4g\	.	4d\	.	4f\	.	4G/	.	4g/	.
4G/	.	4g\	.	4c\	.	4e-\	.	4G/	.	4g/	.
=8	=8	=8	=8	=8	=8	=8	=8	=8	=8	=8	=8
*	*	*2\right	*	*	*	*2\right	*	*	*	*	*
.	.	.	.	16qqc/	.	16qqe-/	.	.	.	.	.
*	*	*	*	*2\right	*	*	*	*	*	*	*
2G/	.	2g\	.	2Bn\	.	2d\	.	2G/	.	2g/	.
.	.	.	.	.	.	.	.	.	.	.	.
4r	.	4r	.	4r	.	4r	.	4r	.	4r	.
=9:|!|:	=9:|!|:	=9:|!|:	=9:|!|:	=9:|!|:	=9:|!|:	=9:|!|:	=9:|!|:	=9:|!|:	=9:|!|:	=9:|!|:	=9:|!|:
*>B	*	*>B	*	*>B	*	*>B	*	*>B	*	*>B	*
!	!	!	!	!	!LO:DY:b:rj	!	!	!	!	!	!
2.r	.	2.r	.	4E-\	f	4E-\	.	2.r	.	4ee-\	.
!	!	!LO:TX:a:t=1	!	!	!	!	!	!	!	!	!
.	.	.	.	4r	.	4r	.	.	.	4ee-\	.
.	.	.	.	4r	.	4r	.	.	.	4ee-\	.
!LO:LB:g=original	!	!LO:LB:g=original	!	!	!	!	!	!	!	!	!
=10	=10	=10	=10	=10	=10	=10	=10	=10	=10	=10	=10
!	!	!	!	!LO:TX:t=P:problem:mixed beam	!	!	!	!	!	!	!
!	!LO:DY:b:t=for	!	!	!	!	!	!	!	!LO:DY:b:t=for	!	!
4E-/	f	4e-\	.	8E-\L	.	8r	.	4g\	f	2dd-X\	.
!	!	!	!	!	!	!LO:TX:t=P:problem:mixed beam	!	!	!	!	!
.	.	.	.	8E-\	.	8E-\L	.	.	.	.	.
4E-/	.	4e-\	.	8G\	.	8G\	.	4b-\	.	.	.
.	.	.	.	8E-\	.	8E-\	.	.	.	.	.
4E-/	.	4e-\	.	8A-\	.	8A-\	.	4a-\	.	4cc\	.
.	.	.	.	8AA-/J	.	8AA-/J	.	.	.	.	.
!	!	!	!	!	!	!LO:LB:g=original	!	!	!	!	!
=11	=11	=11	=11	=11	=11	=11	=11	=11	=11	=11	=11
2.r	.	2.r	.	4F\	.	4F\	.	2.r	.	4ff\	.
!LO:TX:a:t=1	!	!LO:TX:a:t=1	!	!	!	!	!	!	!	!	!
.	.	.	.	4r	.	4r	.	.	.	4ff\	.
.	.	.	.	4r	.	4r	.	.	.	4ff\	.
!	!	!	!	!	!	!	!	!	!	!LO:LB:g=original	!
=12	=12	=12	=12	=12	=12	=12	=12	=12	=12	=12	=12
4f\	.	4f\	.	8r	.	8r	.	4a\	.	(>2ee-\	.
!	!	!	!	!LO:TX:t=P:problem:mixed beam	!	!LO:TX:t=P:problem:mixed beam	!	!	!	!	!
.	.	.	.	8F\L	.	8F\L	.	.	.	.	.
4f\	.	4f\	.	8An\	.	8An\	.	4cc\	.	.	.
.	.	.	.	8F\	.	8F\	.	.	.	.	.
4B-/	.	4f\	.	8B-\	.	8B-\	.	4b-\	.	4ddn\)	.
.	.	.	.	8BB-/J	.	8BB-/J	.	.	.	.	.
!	!	!	!	!	!	!	!	!LO:LB:g=original	!	!	!
=13	=13	=13	=13	=13	=13	=13	=13	=13	=13	=13	=13
!LO:TX:a:t=3	!	!LO:TX:a:t=3	!	!	!	!	!	!	!	!	!
1.r	.	1.r	.	4r	.	4r	.	4b-\	.	4bb-\	.
.	.	.	.	8r	.	8r	.	4b-\	.	4bb-\	.
.	.	.	.	(>8G\L	.	8G\L	.	.	.	.	.
.	.	.	.	8E-\)	.	8E-\	.	4b-\	.	4bb-\	.
.	.	.	.	8G'\J	.	8G\J	.	.	.	.	.
!	!	!	!	!LO:LB:g=original	!	!	!	!	!	!	!
=14	=14	=14	=14	=14	=14	=14	=14	=14	=14	=14	=14
.	.	.	.	8A-X'\L	.	8A-\L	.	2.cc\	.	4bb-\	.
.	.	.	.	8G'\	.	8G\	.	.	.	.	.
.	.	.	.	8F'\	.	8F\	.	.	.	2aa-X\	.
.	.	.	.	8E-'\	.	8E-\	.	.	.	.	.
.	.	.	.	8F'\	.	8F\	.	.	.	.	.
.	.	.	.	8D'\J	.	8D\J	.	.	.	.	.
=15	=15	=15	=15	=15	=15	=15	=15	=15	=15	=15	=15
2.r	.	2.r	.	8G'\L	.	8G\L	.	2.b-\	.	4aa-X\	.
.	.	.	.	8F'\	.	8F\	.	.	.	.	.
.	.	.	.	8E-'\	.	8E-\	.	.	.	2gg\	.
.	.	.	.	8D'\	.	8D\	.	.	.	.	.
.	.	.	.	8E-'\	.	8E-\	.	.	.	.	.
.	.	.	.	8C'\J	.	8C\J	.	.	.	.	.
!	!	!	!	!	!	!LO:LB:g=original	!	!	!	!	!
=16	=16	=16	=16	=16	=16	=16	=16	=16	=16	=16	=16
4r	.	4r	.	8F\L	.	8F\L	.	2.a-\	.	4gg\	.
.	.	.	.	8E-\	.	8E-\	.	.	.	.	.
4r	.	4r	.	8D\	.	8D\	.	.	.	2ff\	.
.	.	.	.	8C\	.	8C\	.	.	.	.	.
4B-/	.	4f\	.	8D\	.	8D\	.	.	.	.	.
.	.	.	.	8BB-\J	.	8BB-\J	.	.	.	.	.
=17	=17	=17	=17	=17	=17	=17	=17	=17	=17	=17	=17
4e-\	.	4g\	.	8E-/L	.	8E-/L	.	4g/	.	4ff\	.
.	.	.	.	8D/	.	8D/	.	.	.	.	.
4r	.	8ee-\L	.	8C/	.	8C/	.	4r	.	4ee-\	.
.	.	8dd\	.	8BB-/	.	8BB-/	.	.	.	.	.
4e-\	.	8cc\	.	8AA-/	.	8AA-/	.	4ee-\	.	(>8ccc\L	.
.	.	8b-\J	.	8GG/J	.	8GG/J	.	.	.	8bb-\J)	.
!	!	!	!	!	!	!	!	!	!	!LO:LB:g=original	!
=18	=18	=18	=18	=18	=18	=18	=18	=18	=18	=18	=18
.	.	16qqb-/	.	.	.	.	.	16qqgg/	.	.	.
4f\	.	4a-\	.	8AA-/L	.	8AA-/L	.	4ff\	.	4aa-\	.
.	.	.	.	8FF/	.	8FF/	.	.	.	.	.
4d\	.	4g\	.	8BB-/	.	8BB-/	.	4ee-\	.	4gg\	.
.	.	.	.	8AA-/	.	8AA-/	.	.	.	.	.
4B-/	.	4f\	.	8BB-/	.	8BB-/	.	4dd\	.	4ff\	.
.	.	.	.	8BB-/J	.	8BB-/J	.	.	.	.	.
!LO:LB:g=original	!	!	!	!	!	!	!	!LO:LB:g=original	!	!	!
=19	=19	=19	=19	=19	=19	=19	=19	=19	=19	=19	=19
!	!	!	!	!LO:TX:t=P:problem:mixed beam	!	!LO:TX:t=P:problem:mixed beam	!	!	!	!	!
2E-/	.	2e-\	.	8EE-/L	.	8EE-/L	.	2ee-\	.	2ee-\	.
.	.	.	.	8E-\	.	8E-\	.	.	.	.	.
.	.	.	.	8G\	.	8G\	.	.	.	.	.
.	.	.	.	8F\	.	8F\	.	.	.	.	.
4r	.	4r	.	8E-\	.	8E-\	.	4r	.	4r	.
.	.	.	.	8D\J	.	8D\J	.	.	.	.	.
!	!	!	!	!LO:LB:g=original	!	!	!	!	!	!	!
=20	=20	=20	=20	=20	=20	=20	=20	=20	=20	=20	=20
!LO:TX:a:t=10	!	!LO:TX:a:t=10	!	!	!	!	!	!	!	!	!
!	!	!	!	!	!	!	!	!	!LO:DY:b:t=for	!	!
0.r	.	0.r	.	4C/	.	4C/	.	4ee-\	f	4gg\	.
.	.	.	.	4r	.	4r	.	4ee-\	.	4gg\	.
.	.	.	.	4r	.	4r	.	4ee-\	.	4gg\	.
!	!	!	!	!	!	!LO:LB:g=original	!	!	!	!	!
=21	=21	=21	=21	=21	=21	=21	=21	=21	=21	=21	=21
.	.	.	.	4r	.	4r	.	(>8ee-\L	.	8gg\L	.
.	.	.	.	.	.	.	.	8dd\	.	(>8ff\	.
.	.	.	.	4G\	.	4G\	.	8dd\	.	(>8ff\)	.
.	.	.	.	.	.	.	.	8cc\J)	.	8ee-\J)	.
.	.	.	.	4A-\	.	4A-\	.	4cc\	.	4ee-\	.
=22	=22	=22	=22	=22	=22	=22	=22	=22	=22	=22	=22
.	.	.	.	4F\	.	4F\	.	4dd\	.	4ff\	.
.	.	.	.	4r	.	4r	.	4dd\	.	4ff\	.
.	.	.	.	4r	.	4r	.	4dd\	.	4ff\	.
!	!	!	!	!	!	!	!	!	!	!LO:LB:g=original	!
=23	=23	=23	=23	=23	=23	=23	=23	=23	=23	=23	=23
.	.	.	.	4r	.	4r	.	(>8dd\L	.	(>8ff\L	.
.	.	.	.	.	.	.	.	8cc\	.	8ee-\)	.
!	!	!	!	!LO:SIC:v:s=4F#	!	!	!	!	!	!	!
.	.	.	.	4F\	.	4F#X\	.	8cc\	.	(>8ee-\	.
.	.	.	.	.	.	.	.	8bX\J)	.	8dd\J)	.
.	.	.	.	4G\	.	4G\	.	4b\	.	4dd\	.
!	!	!	!	!	!	!	!	!LO:LB:g=original	!	!	!
=24	=24	=24	=24	=24	=24	=24	=24	=24	=24	=24	=24
!	!	!	!	!LO:TX:a:t=6	!	!	!	!	!	!	!
!	!	!	!	!	!	!	!	!	!LO:DY:b:rj	!	!LO:DY:b:rj
0.r	.	0.r	.	0.r	.	4e-\	.	4g/	p	4cc\	p
.	.	.	.	.	.	4e-\	.	4g/	.	4cc\	.
.	.	.	.	.	.	4e-\	.	4g/	.	4cc\	.
=25	=25	=25	=25	=25	=25	=25	=25	=25	=25	=25	=25
.	.	.	.	.	.	4f\	.	4a-\	.	4dd-X\	.
.	.	.	.	.	.	4f\	.	4a-\	.	4dd-\	.
.	.	.	.	.	.	4f\	.	4a-\	.	4ff\	.
=26	=26	=26	=26	=26	=26	=26	=26	=26	=26	=26	=26
.	.	.	.	.	.	4r	.	2e-/	.	2cc\	.
.	.	.	.	.	.	4g\	.	.	.	.	.
.	.	.	.	.	.	4G\	.	4d/	.	4bX\	.
!	!	!	!	!	!	!LO:LB:g=original	!	!	!	!	!
=27	=27	=27	=27	=27	=27	=27	=27	=27	=27	=27	=27
.	.	.	.	.	.	4A-\	.	4c/	.	4cc\	.
.	.	.	.	.	.	4r	.	4r	.	4r	.
.	.	.	.	.	.	4r	.	4r	.	4r	.
!	!	!	!	!	!	!	!	!	!	!LO:LB:g=original	!
=28	=28	=28	=28	=28	=28	=28	=28	=28	=28	=28	=28
1.r	.	1.r	.	1.r	.	4r	.	4r	.	4r	.
.	.	.	.	.	.	4A-\	.	4cc\	.	4ff#X\	.
.	.	.	.	.	.	4A-\	.	4cc\	.	4ff#\	.
=29	=29	=29	=29	=29	=29	=29	=29	=29	=29	=29	=29
.	.	.	.	.	.	4A-\	.	4cc\	.	4ff#X\	.
.	.	.	.	.	.	4r	.	4r	.	4r	.
.	.	.	.	.	.	4r	.	4r	.	4r	.
!	!	!LO:LB:g=original	!	!	!	!	!	!LO:LB:g=original	!	!	!
=30	=30	=30	=30	=30	=30	=30	=30	=30	=30	=30	=30
4r	.	4r	.	4r	.	4r	.	4r	.	4gg\	.
4G/	.	4g\	.	4G\	.	4G\	.	4cc\	.	4ee-\	.
4G/	.	4g\	.	4GG/	.	4GG/	.	4bX\	.	4dd\	.
=31	=31	=31	=31	=31	=31	=31	=31	=31	=31	=31	=31
2G/	.	2g\	.	4C;>/	.	4C;>/	.	2cc\	.	2cc\	.
.	.	.	.	4c\	.	4c\	.	.	.	.	.
4r	.	4r	.	16B-\LL	.	16B-\LL	.	4r	.	4r	.
.	.	.	.	16A-\	.	16A-\	.	.	.	.	.
.	.	.	.	16G\	.	16G\	.	.	.	.	.
!	!	!	!	!LO:TX:b:i:t=Trio Subito÷	!	!	!	!	!	!	!
.	.	.	.	16F\JJ	.	16F\JJ	.	.	.	.	.
!LO:LB:g=original	!	!	!	!	!	!	!	!	!	!LO:LB:g=original	!
!	!	!	!	!LO:PB:g=original	!	!	!	!	!	!	!
=32:|!	=32:|!	=32:|!	=32:|!	=32:|!	=32:|!	=32:|!	=32:|!	=32:|!	=32:|!	=32:|!	=32:|!
*>C	*	*>C	*	*>C	*	*>C	*	*>C	*	*>C	*
!LO:TX:a:i:t=Trio	!	!LO:TX:a:i:t=Trio	!	!LO:TX:a:i:t=Trio	!	!LO:TX:a:i:t=  /&colon; Trio &colon;/	!	!LO:TX:a:i:t=  /&colon; Trio &colon;/	!	!LO:TX:a:i:t=/ Trio &colon;/	!
4E-/	.	4e-\	.	4E-\	.	4E-\	.	4e-/	.	8b-\L	.
.	.	.	.	.	.	.	.	.	.	16cc\L	.
.	.	.	.	.	.	.	.	.	.	16dd\JJ	.
4r	.	4r	.	4r	.	4r	.	4r	.	16ee-\LL	.
.	.	.	.	.	.	.	.	.	.	16ff\	.
.	.	.	.	.	.	.	.	.	.	16gg\	.
.	.	.	.	.	.	.	.	.	.	16ff\JJ	.
4r	.	4r	.	4r	.	4r	.	4r	.	16ee-\LL	.
.	.	.	.	.	.	.	.	.	.	16dd\	.
.	.	.	.	.	.	.	.	.	.	16cc\	.
.	.	.	.	.	.	.	.	.	.	16b-\JJ	.
=33	=33	=33	=33	=33	=33	=33	=33	=33	=33	=33	=33
4r	.	4r	.	4r	.	4r	.	16e-/LL	.	4cc\	.
.	.	.	.	.	.	.	.	16cc/	.	.	.
.	.	.	.	.	.	.	.	16a-/	.	.	.
.	.	.	.	.	.	.	.	16cc/JJ	.	.	.
*	*	*	*	*	*	*	*	*rep	*	*	*
4E-/	.	4e-\	.	4A-\	.	4c\	.	16e-/LL	.	4r	.
.	.	.	.	.	.	.	.	16cc/	.	.	.
.	.	.	.	.	.	.	.	16a-/	.	.	.
.	.	.	.	.	.	.	.	16cc/JJ	.	.	.
*	*	*	*	*	*	*	*	*Xrep	*	*	*
*	*	*	*	*	*	*	*	*rep	*	*	*
4E-/	.	4e-\	.	4A-\	.	4c\	.	16e-/LL	.	4r	.
.	.	.	.	.	.	.	.	16cc/	.	.	.
.	.	.	.	.	.	.	.	16a-/	.	.	.
.	.	.	.	.	.	.	.	16cc/JJ	.	.	.
*	*	*	*	*	*	*	*	*Xrep	*	*	*
=34	=34	=34	=34	=34	=34	=34	=34	=34	=34	=34	=34
4E-/	.	4e-\	.	4A-\	.	4c\	.	4e-/	.	8cc\L	.
.	.	.	.	.	.	.	.	.	.	16dd\L	.
.	.	.	.	.	.	.	.	.	.	16ee-\JJ	.
4r	.	4r	.	4r	.	4r	.	4r	.	16ff\LL	.
.	.	.	.	.	.	.	.	.	.	16gg\	.
.	.	.	.	.	.	.	.	.	.	16aa-\	.
.	.	.	.	.	.	.	.	.	.	16gg\JJ	.
4r	.	4r	.	4r	.	4r	.	4r	.	16ff\LL	.
.	.	.	.	.	.	.	.	.	.	16ee-\	.
.	.	.	.	.	.	.	.	.	.	16dd\	.
.	.	.	.	.	.	.	.	.	.	16cc\JJ	.
!	!	!LO:LB:g=original	!	!	!	!	!	!	!	!LO:LB:g=original	!
=35	=35	=35	=35	=35	=35	=35	=35	=35	=35	=35	=35
!	!	!	!	!	!	!	!	!	!	!LO:N:acc=n	!
4r	.	4r	.	4r	.	4r	.	16e-/LL	.	4b-\	.
.	.	.	.	.	.	.	.	16b-/	.	.	.
.	.	.	.	.	.	.	.	16g/	.	.	.
.	.	.	.	.	.	.	.	16b-/JJ	.	.	.
*	*	*	*	*	*	*	*	*rep	*	*	*
4E-/	.	4e-\	.	4G\	.	4B-\	.	16e-/LL	.	4r	.
.	.	.	.	.	.	.	.	16b-/	.	.	.
.	.	.	.	.	.	.	.	16g/	.	.	.
.	.	.	.	.	.	.	.	16b-/JJ	.	.	.
*	*	*	*	*	*	*	*	*Xrep	*	*	*
*	*	*	*	*	*	*	*	*rep	*	*	*
4E-/	.	4e-\	.	4G\	.	4B-\	.	16e-/LL	.	4r	.
.	.	.	.	.	.	.	.	16b-/	.	.	.
.	.	.	.	.	.	.	.	16g/	.	.	.
.	.	.	.	.	.	.	.	16b-/JJ	.	.	.
*	*	*	*	*	*	*	*	*Xrep	*	*	*
=36	=36	=36	=36	=36	=36	=36	=36	=36	=36	=36	=36
4E-/	.	4e-\	.	4G\	.	4B-\	.	4e-/	.	8b-\L	.
.	.	.	.	.	.	.	.	.	.	16cc\L	.
.	.	.	.	.	.	.	.	.	.	16dd\JJ	.
4r	.	4r	.	4r	.	4r	.	4r	.	16ee-\LL	.
.	.	.	.	.	.	.	.	.	.	16ff\	.
.	.	.	.	.	.	.	.	.	.	16gg\	.
.	.	.	.	.	.	.	.	.	.	16ff\JJ	.
4r	.	4r	.	4r	.	4r	.	4r	.	16ee-\LL	.
.	.	.	.	.	.	.	.	.	.	16dd\	.
.	.	.	.	.	.	.	.	.	.	16cc\	.
.	.	.	.	.	.	.	.	.	.	16b-\JJ	.
!	!	!	!	!LO:LB:g=original	!	!LO:LB:g=original	!	!LO:LB:g=original	!	!	!
=37	=37	=37	=37	=37	=37	=37	=37	=37	=37	=37	=37
2B-/	.	2f\	.	8r	.	8r	.	4dd\	.	4a-\	.
.	.	.	.	8B-\L	.	8B-\L	.	.	.	.	.
.	.	.	.	8d\	.	8d\	.	4ff\	.	4aa-\	.
.	.	.	.	8B-\	.	8B-\	.	.	.	.	.
8e-\L	.	8g\L	.	8e-\	.	8e-\	.	4ee-\	.	4gg\	.
8f\J	.	8b-\J	.	8E-\J	.	8E-\J	.	.	.	.	.
!LO:LB:g=original	!	!	!	!	!	!	!	!	!	!	!
=38	=38	=38	=38	=38	=38	=38	=38	=38	=38	=38	=38
.	.	16qqb-/	.	.	.	.	.	.	.	16qqgg/	.
!	!LO:DY:b	!	!	!	!	!	!	!	!	!	!
4f\	p	4a-\	.	4A-\	.	4A-\	.	4cc\	.	4ff\	.
4e-\	.	4g\	.	4B-\	.	4B-\	.	4b-\	.	4ee-\	.
4B-/	.	4f\	.	4BB-/	.	4BB-/	.	4a-\	.	4dd\	.
=39	=39	=39	=39	=39	=39	=39	=39	=39	=39	=39	=39
.	.	16qqf/	.	.	.	.	.	.	.	16qqdd/	.
2G/	.	2e-\	.	8E-/L	.	8E-/L	.	2g/	.	2ee-\	.
.	.	.	.	8BB-/	.	8BB-/	.	.	.	.	.
.	.	.	.	8GG/	.	8GG/	.	.	.	.	.
.	.	.	.	8BB-/J	.	8BB-/J	.	.	.	.	.
4r	.	4r	.	4EE-/	.	4EE-/	.	4r	.	4r	.
!	!	!	!	!	!	!	!	!	!	!LO:LB:g=original	!
=40:|!|:	=40:|!|:	=40:|!|:	=40:|!|:	=40:|!|:	=40:|!|:	=40:|!|:	=40:|!|:	=40:|!|:	=40:|!|:	=40:|!|:	=40:|!|:
*>D	*	*>D	*	*>D	*	*>D	*	*>D	*	*>D	*
2.r	.	2.r	.	2.r	.	2.r	.	4b-\	.	4bb-\	.
!LO:TX:a:t=1	!	!LO:TX:a:t=1	!	!LO:TX:a:t=1	!	!LO:TX:a:t=1	!	!	!	!	!
.	.	.	.	.	.	.	.	4g\	.	4gg\	.
.	.	.	.	.	.	.	.	4e-/	.	4ee-\	.
=41	=41	=41	=41	=41	=41	=41	=41	=41	=41	=41	=41
!	!	!	!LO:DY:b:t=for	!	!LO:DY:b:t=for	!	!	!	!	!	!
4B-/	.	4b-\	f	4B-\	f	4B-\	.	4B-/	.	4b-\	.
4G/	.	4g\	.	4G\	.	4G\	.	4r	.	4r	.
4E-/	.	4e-\	.	4E-\	.	4E-\	.	4r	.	4r	.
=42	=42	=42	=42	=42	=42	=42	=42	=42	=42	=42	=42
!	!	!	!	!	!	!	!LO:DY:b	!	!	!	!
4BB-/	.	4B-/	p	2BB-/	p	4BB-/	p	4r	.	4r	.
4B-/	.	4f\	.	.	.	4D\	.	4ff\	.	4aa-\	.
4e-\	.	4g\	.	4EE-/	.	4E-\	.	4ee-\	.	4gg\	.
!	!	!LO:LB:g=original	!	!	!	!	!	!LO:LB:g=original	!	!	!
!	!	!	!	!	!	!LO:LB:g=original	!	!	!	!	!
=43	=43	=43	=43	=43	=43	=43	=43	=43	=43	=43	=43
.	.	16qqg/	.	.	.	.	.	16qqee-/	.	16qqgg/	.
2B-/	.	2f\	.	8BB-\L	.	8BB-\L	.	2dd\	.	2ff\	.
.	.	.	.	8B-\	.	8B-\	.	.	.	.	.
!	!	!	!	!LO:N:acc=#	!	!	!	!	!	!	!
.	.	.	.	8An\	.	8An\	.	.	.	.	.
.	.	.	.	8B-\J	.	8B-\J	.	.	.	.	.
4r	.	4r	.	4BB-/	.	4BB-/	.	4r	.	4r	.
!	!	!	!	!LO:LB:g=original	!	!	!	!	!	!	!
=44	=44	=44	=44	=44	=44	=44	=44	=44	=44	=44	=44
!	!	!	!	!	!	!	!	!	!	!	!LO:DY:b:t=for
2.r	.	2.r	.	2.r	.	2.r	.	4b-/	.	4bb-\	f
!LO:TX:a:t=1	!	!LO:TX:a:t=1	!	!LO:TX:a:t=1	!	!LO:TX:a:t=1	!	!	!	!	!
.	.	.	.	.	.	.	.	4g/	.	4gg\	.
!	!	!	!	!	!	!	!	!	!	!LO:SIC:v:s=4ff	!
.	.	.	.	.	.	.	.	4e-/	.	4ff\	.
=45	=45	=45	=45	=45	=45	=45	=45	=45	=45	=45	=45
!	!	!	!LO:DY:b:t=for	!	!LO:DY:b:t=for	!	!	!	!	!	!
4B-/	.	4b-\	f	4B-\	f	4B-\	.	4B-/	.	4b-\	.
4G/	.	4g\	.	4G\	.	4G\	.	4r	.	4r	.
4E-/	.	4e-\	.	4E-\	.	4E-\	.	4r	.	4r	.
!LO:LB:g=original	!	!	!	!	!	!	!	!	!	!LO:LB:g=original	!
=46	=46	=46	=46	=46	=46	=46	=46	=46	=46	=46	=46
!	!	!	!	!	!LO:DY:b:rj	!	!	!	!	!	!
4BB-/	.	4B-/	.	2BB-/	p	4BB-/	.	4r	.	4r	.
4BB-/	.	4B-/	.	.	.	4D	.	4a-/	.	4ff\	.
.	.	.	.	.	.	.	.	.	.	.	.
4BB-/	.	4B-/	.	4EE-/	.	4E-	.	4g/	.	4ee-\	.
.	.	.	.	.	.	.	.	.	.	.	.
=47	=47	=47	=47	=47	=47	=47	=47	=47	=47	=47	=47
.	.	.	.	.	.	.	.	16qqg/	.	16qqee-/	.
2BB-/	.	2B-/	.	4BB-/	.	4BB-/	.	2f/	.	2dd\	.
.	.	.	.	8B-\L	.	8B-\L	.	.	.	.	.
.	.	.	.	8A-\	.	8A-X\	.	.	.	.	.
4r	.	4r	.	8G\	.	8G\	.	4r	.	4r	.
.	.	.	.	8F\J	.	8F\J	.	.	.	.	.
!	!	!	!	!	!	!LO:TX:b:i:t=/&colon; Menuetto Da Capo	!	!	!	!	!
=48	=48	=48	=48	=48	=48	=48	=48	=48	=48	=48	=48
!	!	!	!	!	!	!LO:TX:t=P:problem:brak tt. 48-55	!	!	!	!	!
4E-/	.	4e-\	.	4E-\	.	2.ryy	.	4e-/	.	8b-\L	.
.	.	.	.	.	.	.	.	.	.	16cc\L	.
.	.	.	.	.	.	.	.	.	.	16dd\JJ	.
4r	.	4r	.	4r	.	.	.	4r	.	16ee-\LL	.
.	.	.	.	.	.	.	.	.	.	16ff\	.
.	.	.	.	.	.	.	.	.	.	16gg\	.
.	.	.	.	.	.	.	.	.	.	16ff\JJ	.
4r	.	4r	.	4r	.	.	.	4r	.	16ee-\LL	.
.	.	.	.	.	.	.	.	.	.	16dd\	.
.	.	.	.	.	.	.	.	.	.	16cc\	.
.	.	.	.	.	.	.	.	.	.	16b-\JJ	.
!	!	!	!	!	!	!	!	!LO:LB:g=original	!	!	!
=49	=49	=49	=49	=49	=49	=49	=49	=49	=49	=49	=49
4r	.	4r	.	4r	.	2.ryy	.	16e-/LL	.	4cc\	.
.	.	.	.	.	.	.	.	16cc/	.	.	.
.	.	.	.	.	.	.	.	16a-/	.	.	.
.	.	.	.	.	.	.	.	16cc/JJ	.	.	.
*	*	*	*	*	*	*	*	*rep	*	*	*
4E-/	.	4e-\	.	4A-\	.	.	.	16e-/LL	.	4r	.
.	.	.	.	.	.	.	.	16cc/	.	.	.
.	.	.	.	.	.	.	.	16a-/	.	.	.
.	.	.	.	.	.	.	.	16cc/JJ	.	.	.
*	*	*	*	*	*	*	*	*Xrep	*	*	*
*	*	*	*	*	*	*	*	*rep	*	*	*
4E-/	.	4e-\	.	4A-\	.	.	.	16e-/LL	.	4r	.
.	.	.	.	.	.	.	.	16cc/	.	.	.
.	.	.	.	.	.	.	.	16a-/	.	.	.
.	.	.	.	.	.	.	.	16cc/JJ	.	.	.
*	*	*	*	*	*	*	*	*Xrep	*	*	*
=50	=50	=50	=50	=50	=50	=50	=50	=50	=50	=50	=50
4E-/	.	4e-\	.	4A-\	.	2.ryy	.	4e-/	.	8cc\L	.
.	.	.	.	.	.	.	.	.	.	16dd\L	.
.	.	.	.	.	.	.	.	.	.	16ee-\JJ	.
4r	.	4r	.	4r	.	.	.	4r	.	16ff\LL	.
.	.	.	.	.	.	.	.	.	.	16gg\	.
.	.	.	.	.	.	.	.	.	.	16aa-\	.
.	.	.	.	.	.	.	.	.	.	16gg\JJ	.
4r	.	4r	.	4r	.	.	.	4r	.	16ff\LL	.
.	.	.	.	.	.	.	.	.	.	16ee-\	.
.	.	.	.	.	.	.	.	.	.	16dd\	.
.	.	.	.	.	.	.	.	.	.	16cc\JJ	.
!	!	!LO:LB:g=original	!	!	!	!	!	!	!	!LO:LB:g=original	!
=51	=51	=51	=51	=51	=51	=51	=51	=51	=51	=51	=51
4r	.	4r	.	4r	.	2.ryy	.	16e-/LL	.	4b-\	.
.	.	.	.	.	.	.	.	16b-/	.	.	.
.	.	.	.	.	.	.	.	16g/	.	.	.
.	.	.	.	.	.	.	.	16b-/JJ	.	.	.
*	*	*	*	*	*	*	*	*rep	*	*	*
4E-/	.	4e-\	.	4G\	.	.	.	16e-/LL	.	4r	.
.	.	.	.	.	.	.	.	16b-/	.	.	.
.	.	.	.	.	.	.	.	16g/	.	.	.
.	.	.	.	.	.	.	.	16b-/JJ	.	.	.
*	*	*	*	*	*	*	*	*Xrep	*	*	*
*	*	*	*	*	*	*	*	*rep	*	*	*
4E-/	.	4e-\	.	4G\	.	.	.	16e-/LL	.	4r	.
.	.	.	.	.	.	.	.	16b-/	.	.	.
.	.	.	.	.	.	.	.	16g/	.	.	.
.	.	.	.	.	.	.	.	16b-/JJ	.	.	.
*	*	*	*	*	*	*	*	*Xrep	*	*	*
!	!	!	!	!LO:LB:g=original	!	!	!	!	!	!	!
=52	=52	=52	=52	=52	=52	=52	=52	=52	=52	=52	=52
4E-/	.	4e-\	.	4G\	.	2.ryy	.	4e-/	.	8b-\L	.
.	.	.	.	.	.	.	.	.	.	16cc\L	.
.	.	.	.	.	.	.	.	.	.	16dd\JJ	.
4r	.	4r	.	4r	.	.	.	4r	.	16ee-\LL	.
.	.	.	.	.	.	.	.	.	.	16ff\	.
.	.	.	.	.	.	.	.	.	.	16gg\	.
.	.	.	.	.	.	.	.	.	.	16ff\JJ	.
4r	.	4r	.	4r	.	.	.	4r	.	16ee-\LL	.
.	.	.	.	.	.	.	.	.	.	16dd\	.
.	.	.	.	.	.	.	.	.	.	16cc\	.
.	.	.	.	.	.	.	.	.	.	16b-\JJ	.
=53	=53	=53	=53	=53	=53	=53	=53	=53	=53	=53	=53
2B-/	.	2f\	.	8r	.	2.ryy	.	(>4dd\	.	4a-\	.
.	.	.	.	8B-\L	.	.	.	.	.	.	.
.	.	.	.	8d\	.	.	.	4ff\)	.	4aa-\	.
.	.	.	.	8B-\	.	.	.	.	.	.	.
8e-\L	.	8g\L	.	8e-\	.	.	.	4ee-'\	.	4gg\	.
8f\J	.	8b-\J	.	8E-\J	.	.	.	.	.	.	.
!	!	!	!	!	!	!	!	!LO:LB:g=original	!	!	!
=54	=54	=54	=54	=54	=54	=54	=54	=54	=54	=54	=54
.	.	16qqb-/	.	.	.	.	.	.	.	16qqgg/	.
4f\	.	4a-\	.	4A-\	.	2.ryy	.	4cc\	.	4ff\	.
4e-\	.	4g\	.	4B-\	.	.	.	8g/L	.	4ee-\	.
.	.	.	.	.	.	.	.	8b-/	.	.	.
4B-/	.	4f\	.	4BB-/	.	.	.	8f/	.	4dd\	.
.	.	.	.	.	.	.	.	8a-/J	.	.	.
!LO:LB:g=original	!	!	!	!	!	!	!	!	!	!	!
=55	=55	=55	=55	=55	=55	=55	=55	=55	=55	=55	=55
!	!	!	!	!	!	!	!	!	!	!LO:SIC:v:s=2ff	!
!	!	!	!	!	!	!	!	!	!	!LO:SIC:v:s=16qee	!
.	.	16qqf/	.	.	.	.	.	16qqa-/	.	16qqcc/	.
2G/	.	2e-\	.	8E-/L	.	2.ryy	.	2g/	.	2dd\	.
.	.	.	.	8BB-/	.	.	.	.	.	.	.
.	.	.	.	8GG/	.	.	.	.	.	.	.
.	.	.	.	8BB-/J	.	.	.	.	.	.	.
4r	.	4r	.	4EE-/	.	.	.	4r	.	4r	.
!LO:TX:a:i:t=Menuetto Da Capo	!	!LO:TX:a:i:t=Menuetto\nDa Capo	!	!LO:TX:a:i:t=Menuet Da Capo	!	!	!	!LO:TX:a:i:t=Menuetto Da Capo	!	!LO:TX:b:i:t=/&colon; Menuetto Da Capo &colon;/	!
=:|!	=:|!	=:|!	=:|!	=:|!	=:|!	=:|!	=:|!	=:|!	=:|!	=:|!	=:|!
*-	*-	*-	*-	*-	*-	*-	*-	*-	*-	*-	*-
!!!system-decoration: [(s1,s2,s3,s4)][(s5,s6)]
!!!RDF**kern: > = above
!!!RDF**kern: < = below
!!!ENC: Krzysztof Stępień
!!!END: 2021-06-18
!!!EED: Antoni Szymański
!!!EST: 2021-06-24
